X: 4
T: The Night Before Larry Was Stretched
R: slip jig
M: 9/8
L: 1/8
K: Gmin
|:BAG GDG G2 B|AGF FCF ABc|BAG GDG G2 B|ABc cdB AGF:|
|:Bdd ded f3|B2d def ecA|B2 d ded d2d|dcB cdB AGF:|


Tune 4712	Setting 26120

